X:366
T: Flatterhaft (95a), S. 242
N: T0255
O: Luxemburg
S: Singendes Volk, Esch-Alzette 1937 posth.]
N: Straen, fff Witry, 10.1.1933
R: Liebeslieder]
M: 3/4
L: 1/8
K: F
c2 | A2A2cB | A2A2
c2 | B2B2d2 | c2z2
FG | A4A2 | Acc2
c2 | G4c2 | A2z2

@@@ Tune index: 8420
